X:460
T:Reel 460
M:4/4
K:Gmaj
L:1/8
ge|dGBG AGFD| (3GGG Bd efge|dG (3BAG FGAc|BcAB G2:|de|g2bg agbg|a2bg agef|g2bg agbg|abag fddf|g2bg agbg| (3efg df edef|gfge fefd|egfa gedB|
